X: 1707
T: Antrim Rose, The
R: reel
M: 4/4
K: Dmajor
fd d2 edBd|Ad d2 Adde|fd d2 edBA|Bdgf e2 de|
fd d2 edBd|Addc defg|a2 ab afeg|1 fedB A2 de:|2 fedB A2 Bd||
e2 ef edBd|e2 df efgf|edfd edBd|Addc dGBd|
e2 ef edBd|e2 df efgf|eaab afeg|1 fedB A2 Bd:|2 fedB A2 de||

